svg/u2668.svg

<svg viewBox="0 0 128 128" xmlns="http://www.w3.org/2000/svg">
  <path d="M113.8,65.4c-0.2-0.1-0.4-0.2-0.6-0.2c-0.7,0-4.9,0-4.9,0s6.7,7.5,6.7,10.7c0,15.5-21.5,28.1-48,28.1 S19,91.4,19,75.9c0-3.2,0.9-6.3,2.7-9.2c0.4-0.7-0.2-1.6-1-1.5c-0.2,0-4.9,0-4.9,0S7,79.4,7,87.9c0,20,26.9,36.1,60,36.1 s60-16.1,60-36.1C127,79.4,122.1,71.6,113.8,65.4z" fill="#CC3333"/>
  <path d="M54.4,83.9c0,0,4.8,0,4.9,0c0.2,0,0.4,0,0.7-0.2c6.6-4.5,23.6-18.9,13.5-41.3 c-7.2-16.1-4.6-30.8-2.9-37.1c0.2-0.7-0.4-1.4-1-1.4c-0.2,0-5,0-5,0s-16.8,20.9-8.8,41.9C62.2,62.9,54.4,83.9,54.4,83.9z" fill="#CC3333"/>
  <path d="M25.3,83.9c0,0,4.2-0.1,4.9-0.1c0.2,0,0.5,0,0.7-0.2c5.9-4,21.1-16.8,12.1-36.9 c-6.5-14.4-4.2-27.6-2.6-33.2c0.2-0.6-0.3-1.2-0.8-1.2c-0.2,0-5,0-5,0S20,31.1,27.1,49.8C32.8,65.1,25.3,83.9,25.3,83.9z" fill="#CC3333"/>
  <path d="M108.8,65.4c-0.9-0.6-2,0.4-1.5,1.3c1.7,2.9,2.7,6,2.7,9.2c0,15.5-21.5,28.1-48,28.1S14,91.4,14,75.9 c0-3.2,0.9-6.3,2.7-9.2c0.5-0.9-0.6-1.9-1.5-1.3C7,71.6,2,79.4,2,87.9c0,20,26.9,36.1,60,36.1s60-16.1,60-36.1 C122,79.4,117.1,71.6,108.8,65.4z" fill="#F44336"/>
  <path d="M53.3,82.6c-0.2,0.9,0.8,1.7,1.6,1.2c6.6-4.5,23.6-18.9,13.5-41.3c-7.2-16.1-4.6-30.8-2.9-37.1 c0.3-1-0.9-1.8-1.7-1.1C57.4,9.7,42.8,25,50.7,46C57.2,62.9,54.8,76.9,53.3,82.6z" fill="#F44336"/>
  <path d="M24.4,82.7c-0.2,0.8,0.7,1.5,1.5,1c5.9-4.1,21.2-16.9,12.1-37c-6.5-14.4-4.2-27.6-2.6-33.2 c0.2-0.9-0.8-1.6-1.5-1C28.1,17.4,15,31.1,22.1,49.8C27.9,65.1,25.7,77.7,24.4,82.7z" fill="#F44336"/>
  <path d="M84.2,83.9c0,0,4.3-0.1,4.8,0c0.2,0,0.5,0,0.7-0.2c5.9-4.1,21.2-16.9,12.1-37 c-6.5-14.4-4.2-27.6-2.6-33.2c0.2-0.6-0.3-1.2-0.8-1.2c-0.2,0-5,0-5,0S78.9,31,86,49.8C91.7,65.1,84.2,83.9,84.2,83.9z" fill="#CC3333"/>
  <path d="M83.2,82.7c-0.2,0.8,0.7,1.5,1.5,1c5.9-4.1,21.2-16.9,12.1-37c-6.5-14.4-4.2-27.6-2.6-33.2 c0.2-0.9-0.8-1.6-1.5-1C87,17.4,73.8,31.1,81,49.8C86.7,65.1,84.6,77.7,83.2,82.7z" fill="#F44336"/>
  <path d="M28.02,47.32c-0.9-0.31-1.69-1.07-2.14-2c-1.55-3.22-2.41-6.47-2.18-10.07 c0.15-2.5,0.51-5.09,1.56-7.47c0.52-1.09,2-4.46,3.59-4.02c0.5,0.11,0.89,0.62,0.98,1.12c0.18,0.9-0.53,1.59-0.95,2.28 c-1.42,2.36-1.52,5.57-1,8.21c0.58,2.95,5.62,7.92,3.2,10.92C30.15,47.45,29.02,47.67,28.02,47.32z" fill="#FF8A80"/>
  <path d="M86.36,47.32c-0.9-0.31-1.69-1.07-2.14-2c-1.55-3.22-2.41-6.47-2.18-10.07 c0.15-2.5,0.51-5.09,1.56-7.47c0.52-1.09,2-4.46,3.59-4.02c0.5,0.11,0.89,0.62,0.98,1.12c0.18,0.9-0.53,1.59-0.95,2.28 c-1.42,2.36-1.52,5.57-1,8.21c0.58,2.95,5.62,7.92,3.2,10.92C88.49,47.45,87.35,47.67,86.36,47.32z" fill="#FF8A80"/>
  <path d="M56.52,42.82c-0.13,0-0.26-0.01-0.41-0.03c-3.37-0.48-3.92-9.02-3.77-11.53 c0.15-2.5,0.51-5.09,1.56-7.47c0.52-1.09,2-4.46,3.59-4.02c0.5,0.11,0.89,0.62,0.98,1.12c0.18,0.9-0.53,1.59-0.95,2.28 c-1.57,2.62-1.66,6-1.09,8.92C56.78,33.85,60.65,42.9,56.52,42.82z" fill="#FF8A80"/>
  <path d="M14.46,101.61c-0.79,1.4-0.29,3.19,1,4.14c4.23,3.11,18.94,12.74,40.34,13.95 c25.58,1.44,37.07-5.97,37.07-5.97s1.75-0.65,1.05-1.78c-0.7-1.13-3.1,0.1-3.1,0.1s-24.9,6.31-44.22,1.22 c-20.36-5.37-24.82-9.95-26.91-11.82c-0.95-0.85-2.25-1.28-3.5-1.05c-0.58,0.11-1.13,0.36-1.51,0.87 C14.61,101.38,14.53,101.5,14.46,101.61z" fill="#FF8A80"/>
</svg>

<svg viewBox="0 0 128 128" xmlns="http://www.w3.org/2000/svg">
  <defs/>
  <path d="M113.8,65.4 C113.6,65.3 113.4,65.2 113.2,65.2 C112.5,65.2 108.3,65.2 108.3,65.2 C108.3,65.2 115,72.7 115,75.9 C115,91.4 93.5,104 67,104 C40.5,104 19,91.4 19,75.9 C19,72.7 19.9,69.6 21.7,66.7 C22.1,66 21.5,65.1 20.7,65.2 C20.5,65.2 15.8,65.2 15.8,65.2 C15.8,65.2 7,79.4 7,87.9 C7,107.9 33.9,124 67,124 C100.1,124 127,107.9 127,87.9 C127,79.4 122.1,71.6 113.8,65.4 Z" fill="#CC3333"/>
  <path d="M54.4,83.9 C54.4,83.9 59.2,83.9 59.3,83.9 C59.5,83.9 59.7,83.9 60,83.7 C66.6,79.2 83.6,64.8 73.5,42.4 C66.3,26.3 68.9,11.6 70.6,5.3 C70.8,4.6 70.2,3.9 69.6,3.9 C69.4,3.9 64.6,3.9 64.6,3.9 C64.6,3.9 47.8,24.8 55.8,45.8 C62.2,62.9 54.4,83.9 54.4,83.9 Z" fill="#CC3333"/>
  <path d="M25.3,83.9 C25.3,83.9 29.5,83.8 30.2,83.8 C30.4,83.8 30.7,83.8 30.9,83.6 C36.8,79.6 52,66.8 43,46.7 C36.5,32.3 38.8,19.1 40.4,13.5 C40.6,12.9 40.1,12.3 39.6,12.3 C39.4,12.3 34.6,12.3 34.6,12.3 C34.6,12.3 20,31.1 27.1,49.8 C32.8,65.1 25.3,83.9 25.3,83.9 Z" fill="#CC3333"/>
  <path d="M108.8,65.4 C107.9,64.8 106.8,65.8 107.3,66.7 C109,69.6 110,72.7 110,75.9 C110,91.4 88.5,104 62,104 C35.5,104 14,91.4 14,75.9 C14,72.7 14.9,69.6 16.7,66.7 C17.2,65.8 16.1,64.8 15.2,65.4 C7,71.6 2,79.4 2,87.9 C2,107.9 28.9,124 62,124 C95.1,124 122,107.9 122,87.9 C122,79.4 117.1,71.6 108.8,65.4 Z" fill="#F44336"/>
  <path d="M53.3,82.6 C53.1,83.5 54.1,84.3 54.9,83.8 C61.5,79.3 78.5,64.9 68.4,42.5 C61.2,26.4 63.8,11.7 65.5,5.4 C65.8,4.4 64.6,3.6 63.8,4.3 C57.4,9.7 42.8,25 50.7,46 C57.2,62.9 54.8,76.9 53.3,82.6 Z" fill="#F44336"/>
  <path d="M24.4,82.7 C24.2,83.5 25.1,84.2 25.9,83.7 C31.8,79.6 47.1,66.8 38,46.7 C31.5,32.3 33.8,19.1 35.4,13.5 C35.6,12.6 34.6,11.9 33.9,12.5 C28.1,17.4 15,31.1 22.1,49.8 C27.9,65.1 25.7,77.7 24.4,82.7 Z" fill="#F44336"/>
  <path d="M84.2,83.9 C84.2,83.9 88.5,83.8 89,83.9 C89.2,83.9 89.5,83.9 89.7,83.7 C95.6,79.6 110.9,66.8 101.8,46.7 C95.3,32.3 97.6,19.1 99.2,13.5 C99.4,12.9 98.9,12.3 98.4,12.3 C98.2,12.3 93.4,12.3 93.4,12.3 C93.4,12.3 78.9,31 86,49.8 C91.7,65.1 84.2,83.9 84.2,83.9 Z" fill="#CC3333"/>
  <path d="M83.2,82.7 C83,83.5 83.9,84.2 84.7,83.7 C90.6,79.6 105.9,66.8 96.8,46.7 C90.3,32.3 92.6,19.1 94.2,13.5 C94.4,12.6 93.4,11.9 92.7,12.5 C87,17.4 73.8,31.1 81,49.8 C86.7,65.1 84.6,77.7 83.2,82.7 Z" fill="#F44336"/>
  <path d="M28.02,47.32 C27.12,47.01 26.33,46.25 25.88,45.32 C24.33,42.1 23.47,38.85 23.7,35.25 C23.85,32.75 24.21,30.16 25.26,27.78 C25.78,26.69 27.26,23.32 28.85,23.76 C29.35,23.87 29.74,24.38 29.83,24.88 C30.01,25.78 29.3,26.47 28.88,27.16 C27.46,29.52 27.36,32.73 27.88,35.37 C28.46,38.32 33.5,43.29 31.08,46.29 C30.15,47.45 29.02,47.67 28.02,47.32 Z" fill="#FF8A80"/>
  <path d="M86.36,47.32 C85.46,47.01 84.67,46.25 84.22,45.32 C82.67,42.1 81.81,38.85 82.04,35.25 C82.19,32.75 82.55,30.16 83.6,27.78 C84.12,26.69 85.6,23.32 87.19,23.76 C87.69,23.87 88.08,24.38 88.17,24.88 C88.35,25.78 87.64,26.47 87.22,27.16 C85.8,29.52 85.7,32.73 86.22,35.37 C86.8,38.32 91.84,43.29 89.42,46.29 C88.49,47.45 87.35,47.67 86.36,47.32 Z" fill="#FF8A80"/>
  <path d="M56.52,42.82 C56.39,42.82 56.26,42.81 56.11,42.79 C52.74,42.31 52.19,33.77 52.34,31.26 C52.49,28.76 52.85,26.17 53.9,23.79 C54.42,22.7 55.9,19.33 57.49,19.77 C57.99,19.88 58.38,20.39 58.47,20.89 C58.65,21.79 57.94,22.48 57.52,23.17 C55.95,25.79 55.86,29.17 56.43,32.09 C56.78,33.85 60.65,42.9 56.52,42.82 Z" fill="#FF8A80"/>
  <path d="M14.46,101.61 C13.67,103.01 14.17,104.8 15.46,105.75 C19.69,108.86 34.4,118.49 55.8,119.7 C81.38,121.14 92.87,113.73 92.87,113.73 C92.87,113.73 94.62,113.08 93.92,111.95 C93.22,110.82 90.82,112.05 90.82,112.05 C90.82,112.05 65.92,118.36 46.6,113.27 C26.24,107.9 21.78,103.32 19.69,101.45 C18.74,100.6 17.44,100.17 16.19,100.4 C15.61,100.51 15.06,100.76 14.68,101.27 C14.61,101.38 14.53,101.5 14.46,101.61 Z" fill="#FF8A80"/>
</svg>
